resources/svg/arrow-left-right-fill.svg

<svg xmlns="http://www.w3.org/2000/svg" viewBox="0 0 24 24" fill="currentColor">
    <g>
        <path fill="none" d="M0 0h24v24H0z"/>
        <path d="M16 16v-4l5 5-5 5v-4H4v-2h12zM8 2v3.999L20 6v2H8v4L3 7l5-5z"/>
    </g>
</svg>

<svg fill="currentColor" viewBox="0 0 24 24" xmlns="http://www.w3.org/2000/svg"><path d="M16 16V12L21 17L16 22V18H4V16H16ZM8 2V5.999L20 6V8H8V12L3 7L8 2Z"/></svg>
